!!!COM: Louise Reichardt
!!!CNT: Deutsch
!!!TXO: Deutsch
!!!OTL: SONG TITLE
!!!LYR: Aus des Knaben Wunderhorn (eds. von Arnim and Brentano)
!!!OPR: Zwo2lf Gesa2nge
!!!OPS: No opus information available
!!!ONM: No. 7
!!!ENC: Ben Fuhrman
!!!YOR: Zwo2lf Gesa2nge
!!!YOR: Hamburg, J.A. Bo2hme, no date - suspected 1811
!!!YOR: IMSLP http://imslp.org/wiki/12_Ges%C3%A4nge_%28Reichardt,_Louise%29
!!!ODT: 1811
!!NB: Only vocal melody encoded.
!!NB: First instance of melodic material only encoded.
!!created: 2/17/10 12:33PM
!!proofed and posted: 2/17/10 12:33PM
**kern	**silbe
*clef G2	*
*k[b-]	*
*M6/8	*
*MM[Bequem]	*
{8c	{Zu
=1	=1
4a	Kob-
8a	-lenz
4a	auf
8a	der
=2	=2
4.cc	Bru2-
4a	-cke,
8f	da
=3	=3
4b-	lag
8b-	ein
8b-	tie-
8cc	|
8dd	-fer
=4	=4
4.cc}	Schnee,}
4r	.
{8cc	{der
=5	=5
4cc	Schnee
8a	der
8cc	ist
8ff	|
8dd	zer-
=6	=6
8cc	-schmol-
8dd	-zen
8b-	das
8a	Was-
8b-	|
8g	-ser
=7	=7
(4.f	fliesst
8f	|
8g)	|
8e	in
=8	=8
4.f}	See.}
4.r	.
==	==
*-	*-
